dist/assets/img/new_order_icon.svg

<svg width="16" height="16" viewBox="0 0 16 16" fill="none" xmlns="http://www.w3.org/2000/svg">
<path d="M13.3531 4.50938L9.99063 1.14688C9.89688 1.05313 9.77031 1 9.6375 1H3C2.72344 1 2.5 1.22344 2.5 1.5V14.5C2.5 14.7766 2.72344 15 3 15H13C13.2766 15 13.5 14.7766 13.5 14.5V4.86406C13.5 4.73125 13.4469 4.60313 13.3531 4.50938ZM12.3469 5.09375H9.40625V2.15313L12.3469 5.09375ZM12.375 13.875H3.625V2.125H8.34375V5.5C8.34375 5.67405 8.41289 5.84097 8.53596 5.96404C8.65903 6.08711 8.82595 6.15625 9 6.15625H12.375V13.875ZM8.5 7.375C8.5 7.30625 8.44375 7.25 8.375 7.25H7.625C7.55625 7.25 7.5 7.30625 7.5 7.375V9.0625H5.8125C5.74375 9.0625 5.6875 9.11875 5.6875 9.1875V9.9375C5.6875 10.0063 5.74375 10.0625 5.8125 10.0625H7.5V11.75C7.5 11.8188 7.55625 11.875 7.625 11.875H8.375C8.44375 11.875 8.5 11.8188 8.5 11.75V10.0625H10.1875C10.2562 10.0625 10.3125 10.0063 10.3125 9.9375V9.1875C10.3125 9.11875 10.2562 9.0625 10.1875 9.0625H8.5V7.375Z" fill="#212121"/>
</svg>

<svg width="16" height="16" fill="none" xmlns="http://www.w3.org/2000/svg"><path d="M13.353 4.51L9.991 1.146A.5.5 0 009.637 1H3a.5.5 0 00-.5.5v13a.5.5 0 00.5.5h10a.5.5 0 00.5-.5V4.864a.503.503 0 00-.147-.355zm-1.006.584h-2.94v-2.94l2.94 2.94zm.028 8.781h-8.75V2.125h4.719V5.5A.656.656 0 009 6.156h3.375v7.719zM8.5 7.375a.125.125 0 00-.125-.125h-.75a.125.125 0 00-.125.125v1.688H5.812a.125.125 0 00-.125.124v.75c0 .07.057.126.125.126H7.5v1.687c0 .069.056.125.125.125h.75a.125.125 0 00.125-.125v-1.688h1.688a.125.125 0 00.124-.124v-.75a.125.125 0 00-.124-.126H8.5V7.375z" fill="#212121"/></svg>
